svgs/regular/road-barrier.svg

<svg xmlns="http://www.w3.org/2000/svg" viewBox="0 0 640 512"><!--! Font Awesome Pro 6.5.1 by @fontawesome - https://fontawesome.com License - https://fontawesome.com/license (Commercial License) Copyright 2023 Fonticons, Inc. --><path d="M24 32c13.3 0 24 10.7 24 24V80H592V56c0-13.3 10.7-24 24-24s24 10.7 24 24V80v48V256v48V456c0 13.3-10.7 24-24 24s-24-10.7-24-24V304H48V456c0 13.3-10.7 24-24 24s-24-10.7-24-24V56C0 42.7 10.7 32 24 32zM592 256V128H570.8l-64 128H592zM48 256H69.2l64-128H48V256zM389.2 128H314.8l-64 128h74.3l64-128zM378.8 256h74.3l64-128H442.8l-64 128zm-192-128l-64 128h74.3l64-128H186.8z"/></svg>

<svg xmlns="http://www.w3.org/2000/svg" viewBox="0 0 640 512"><!--! Font Awesome Pro 6.1.1 by @fontawesome - https://fontawesome.com License - https://fontawesome.com/license (Commercial License) Copyright 2022 Fonticons, Inc. --><path d="M24 32C37.25 32 48 42.75 48 56V80H592V56C592 42.75 602.7 32 616 32C629.3 32 640 42.75 640 56V456C640 469.3 629.3 480 616 480C602.7 480 592 469.3 592 456V304H48V456C48 469.3 37.25 480 24 480C10.75 480 0 469.3 0 456V56C0 42.75 10.75 32 24 32zM592 256V128H570.8L506.8 256H592zM69.17 256L133.2 128H48V256H69.17zM389.2 128H314.8L250.8 256H325.2L389.2 128zM378.8 256H453.2L517.2 128H442.8L378.8 256zM122.8 256H197.2L261.2 128H186.8L122.8 256z"/></svg>
